wp-content/themes/thousand_one/images/logo/brands/logo-hp.svg

<svg width="200" height="120" viewBox="0 0 200 120" fill="none" xmlns="http://www.w3.org/2000/svg">
<path d="M138.6 59.9999C138.6 38.6999 121.3 21.3999 99.9999 21.3999C99.3999 21.3999 98.7999 21.3999 98.2999 21.3999L90.3999 43.0999H97.2999C101.4 43.0999 103.6 46.2999 102.2 50.0999L92.4999 76.8999H84.2999L94.7999 48.1999H88.6999L78.0999 76.8999H69.8999L82.1999 43.0999L89.5999 22.7999C73.2999 27.3999 61.3999 42.2999 61.3999 59.9999C61.3999 78.1999 73.9999 93.4999 90.9999 97.5999L98.1999 77.8999L110.8 43.1999H125.9C130 43.1999 132.2 46.3999 130.8 50.1999L122.2 73.6999C121.5 75.4999 119.5 76.9999 117.5 76.9999H106.6L98.6999 98.6999C99.0999 98.6999 99.4999 98.6999 99.7999 98.6999C121.3 98.5999 138.6 81.2999 138.6 59.9999Z" fill="#0096D6"/>
<path d="M123.4 48.1997H117.3L108.7 71.7997H114.8L123.4 48.1997Z" fill="#0096D6"/>
<rect x="0.5" y="0.5" width="199" height="119" stroke="black"/>
</svg>

<?xml version="1.0" encoding="utf-8"?>
<!-- Generator: Adobe Illustrator 24.0.1, SVG Export Plug-In . SVG Version: 6.00 Build 0)  -->
<svg version="1.1" id="Слой_1" xmlns="http://www.w3.org/2000/svg" xmlns:xlink="http://www.w3.org/1999/xlink" x="0px" y="0px"
	 viewBox="0 0 200 120" style="enable-background:new 0 0 200 120;" xml:space="preserve">
<style type="text/css">
	.st0{fill:#0096D6;}
</style>
<g>
	<path class="st0" d="M138.6,60c0-21.3-17.3-38.6-38.6-38.6c-0.6,0-1.2,0-1.7,0l-7.9,21.7h6.9c4.1,0,6.3,3.2,4.9,7l-9.7,26.8l-8.2,0
		l10.5-28.7h-6.1L78.1,76.9h-8.2l12.3-33.8h0l7.4-20.3C73.3,27.4,61.4,42.3,61.4,60C61.4,78.2,74,93.5,91,97.6l7.2-19.7h0l12.6-34.7
		h15.1c4.1,0,6.3,3.2,4.9,7l-8.6,23.5c-0.7,1.8-2.7,3.3-4.7,3.3h-10.9l-7.9,21.7c0.4,0,0.8,0,1.1,0C121.3,98.6,138.6,81.3,138.6,60"
		/>
	<path class="st0" d="M123.4,48.2h-6.1l-8.6,23.6h6.1L123.4,48.2z"/>
</g>
</svg>
